src/assets/crown.svg

<svg width="34" height="27" viewBox="0 0 34 27" fill="none" xmlns="http://www.w3.org/2000/svg">
<path d="M30.3004 11.5684C30.0255 11.3553 29.6916 11.2182 29.3369 11.1729C28.9821 11.1275 28.6207 11.1756 28.294 11.3118L22.2148 13.8219L18.6826 7.90917C18.5138 7.63312 18.2691 7.40355 17.9737 7.24385C17.6782 7.08414 17.3424 7 17.0006 7C16.6587 7 16.3229 7.08414 16.0275 7.24385C15.732 7.40355 15.4874 7.63312 15.3186 7.90917L11.7864 13.8219L5.70711 11.3118C5.37972 11.1758 5.01791 11.1276 4.66256 11.1726C4.30722 11.2176 3.97252 11.354 3.69629 11.5664C3.42006 11.7788 3.21333 12.0587 3.09946 12.3745C2.9856 12.6903 2.96914 13.0294 3.05194 13.3534L6.10358 25.4355C6.16193 25.6694 6.27082 25.8899 6.42364 26.0836C6.57646 26.2772 6.77004 26.4401 6.99264 26.5623C7.29401 26.7298 7.63859 26.8184 7.98983 26.8189C8.16057 26.8186 8.33043 26.796 8.49443 26.7519C14.0568 25.3239 19.9323 25.3239 25.4947 26.7519C26.0026 26.8759 26.5427 26.8077 26.9965 26.5623C27.2205 26.4417 27.4151 26.2793 27.5681 26.0853C27.7211 25.8914 27.8292 25.6701 27.8855 25.4355L30.9492 13.3534C31.0311 13.0293 31.0137 12.6904 30.8991 12.3749C30.7844 12.0595 30.5771 11.7801 30.3004 11.5684V11.5684Z" fill="#FFAA00"/>
<path d="M30.3004 11.5684C30.0255 11.3553 29.6916 11.2182 29.3369 11.1729C28.9821 11.1275 28.6207 11.1756 28.294 11.3118L22.2148 13.8219L18.6826 7.90917C18.5138 7.63312 18.2691 7.40355 17.9737 7.24385C17.6782 7.08414 17.3424 7 17.0006 7C16.6587 7 16.3229 7.08414 16.0275 7.24385C15.732 7.40355 15.4874 7.63312 15.3186 7.90917L11.7864 13.8219L5.70711 11.3118C5.37972 11.1758 5.01791 11.1276 4.66256 11.1726C4.30722 11.2176 3.97252 11.354 3.69629 11.5664C3.42006 11.7788 3.21333 12.0587 3.09946 12.3745C2.9856 12.6903 2.96914 13.0294 3.05194 13.3534L6.10358 25.4355C6.16193 25.6694 6.27082 25.8899 6.42364 26.0836C6.57646 26.2772 6.77004 26.4401 6.99264 26.5623C7.29401 26.7298 7.63859 26.8184 7.98983 26.8189C8.16057 26.8186 8.33043 26.796 8.49443 26.7519C14.0568 25.3239 19.9323 25.3239 25.4947 26.7519C26.0026 26.8759 26.5427 26.8077 26.9965 26.5623C27.2205 26.4417 27.4151 26.2793 27.5681 26.0853C27.7211 25.8914 27.8292 25.6701 27.8855 25.4355L30.9492 13.3534C31.0311 13.0293 31.0137 12.6904 30.8991 12.3749C30.7844 12.0595 30.5771 11.7801 30.3004 11.5684V11.5684Z" fill="url(#paint0_linear_286_471)"/>
<circle cx="17" cy="4" r="4" fill="#EDBE00"/>
<circle cx="17" cy="18" r="3" fill="url(#paint1_linear_286_471)"/>
<circle cx="31.5" cy="10.5" r="2.5" fill="#EDBE00"/>
<circle cx="2.5" cy="10.5" r="2.5" fill="#EDBE00"/>
<circle cx="9.5" cy="19.5" r="1.5" fill="url(#paint2_linear_286_471)"/>
<circle cx="24.5" cy="19.5" r="1.5" fill="url(#paint3_linear_286_471)"/>
<defs>
<linearGradient id="paint0_linear_286_471" x1="27.4083" y1="33.3373" x2="15.2735" y2="9.49064" gradientUnits="userSpaceOnUse">
<stop stop-color="#FFD000"/>
<stop offset="1" stop-color="#FEDE00"/>
</linearGradient>
<linearGradient id="paint1_linear_286_471" x1="14" y1="18" x2="20" y2="18" gradientUnits="userSpaceOnUse">
<stop stop-color="#F44F5A"/>
<stop offset="0.443" stop-color="#EE3D4A"/>
<stop offset="1" stop-color="#E52030"/>
</linearGradient>
<linearGradient id="paint2_linear_286_471" x1="8" y1="19.5" x2="11" y2="19.5" gradientUnits="userSpaceOnUse">
<stop stop-color="#F44F5A"/>
<stop offset="0.443" stop-color="#EE3D4A"/>
<stop offset="1" stop-color="#E52030"/>
</linearGradient>
<linearGradient id="paint3_linear_286_471" x1="23" y1="19.5" x2="26" y2="19.5" gradientUnits="userSpaceOnUse">
<stop stop-color="#F44F5A"/>
<stop offset="0.443" stop-color="#EE3D4A"/>
<stop offset="1" stop-color="#E52030"/>
</linearGradient>
</defs>
</svg>

<svg xmlns="http://www.w3.org/2000/svg" xmlns:xlink="http://www.w3.org/1999/xlink" width="34" height="27" fill="none" xmlns:v="https://vecta.io/nano"><use xlink:href="#E" fill="#fa0"/><use xlink:href="#E" fill="url(#A)"/><circle cx="17" cy="4" r="4" fill="#edbe00"/><circle cx="17" cy="18" r="3" fill="url(#B)"/><g fill="#edbe00"><circle cx="31.5" cy="10.5" r="2.5"/><circle cx="2.5" cy="10.5" r="2.5"/></g><circle cx="9.5" cy="19.5" r="1.5" fill="url(#C)"/><circle cx="24.5" cy="19.5" r="1.5" fill="url(#D)"/><defs><linearGradient id="A" x1="27.408" y1="33.337" x2="15.274" y2="9.491" gradientUnits="userSpaceOnUse"><stop stop-color="#ffd000"/><stop offset="1" stop-color="#fede00"/></linearGradient><linearGradient id="B" x1="14" y1="18" x2="20" y2="18" gradientUnits="userSpaceOnUse"><stop stop-color="#f44f5a"/><stop offset=".443" stop-color="#ee3d4a"/><stop offset="1" stop-color="#e52030"/></linearGradient><linearGradient id="C" x1="8" y1="19.5" x2="11" y2="19.5" gradientUnits="userSpaceOnUse"><stop stop-color="#f44f5a"/><stop offset=".443" stop-color="#ee3d4a"/><stop offset="1" stop-color="#e52030"/></linearGradient><linearGradient id="D" x1="23" y1="19.5" x2="26" y2="19.5" gradientUnits="userSpaceOnUse"><stop stop-color="#f44f5a"/><stop offset=".443" stop-color="#ee3d4a"/><stop offset="1" stop-color="#e52030"/></linearGradient><path id="E" d="M30.3 11.568c-.275-.213-.609-.35-.963-.396s-.716.003-1.043.139l-6.079 2.51-3.532-5.913a1.87 1.87 0 0 0-.709-.665 2.05 2.05 0 0 0-1.946 0 1.87 1.87 0 0 0-.709.665l-3.532 5.913-6.079-2.51c-.327-.136-.689-.184-1.045-.139s-.69.181-.966.394-.483.492-.597.808-.13.655-.048.979l3.052 12.082a1.72 1.72 0 0 0 .32.648 1.87 1.87 0 0 0 .569.479 2.06 2.06 0 0 0 .997.257 1.96 1.96 0 0 0 .505-.067c5.562-1.428 11.438-1.428 17 0 .508.124 1.048.056 1.502-.19.224-.121.419-.283.572-.477s.261-.415.317-.65l3.064-12.082c.082-.324.064-.663-.05-.979a1.79 1.79 0 0 0-.599-.806h0z"/></defs></svg>
